X: 0731
T: MISS CAMPBELL'S STRATHSPEY
B: Oliver Ditson "The Boston Collection of Instrumental Music" 1910 p.73 #1
F: http://conquest.imslp.info/files/imglnks/usimg/8/8f/IMSLP175643-PMLP309456-bostoncollection00bost_bw.pdf
M: 4/4
L: 1/8
K: G
D | G>AB>G D>GB>G | G>AB>G F>AA>B | G>AB>G E>GD>G | c>AF>d BGG :|
d | Tg>ab>g e>gd>g | Tg>ab>g faTa>b | Tg>ab>g d>g B>G | c>eA>d BGG ||
d | g>abg dgBg | g>ab>g f<aa>b | g<bd<g d<bB<g | c<eF<d BGG |]

%%sep 1 1 500
%%sep 1 1 500
